svg/furkot/freepik/roadblock.svg

<svg viewBox="0 0 512 512" xmlns="http://www.w3.org/2000/svg"><path d="m256.344.003c-141.582 0-256.344 114.789-256.344 256.369 0 141.529 114.762 256.312 256.344 256.312 141.581 0 256.342-114.783 256.342-256.312 0-141.58-114.76-256.369-256.342-256.369zm154.136 296.426h-308.271v-80.148h308.271z"/></svg>

<svg xmlns="http://www.w3.org/2000/svg" viewBox="0 0 512 512"><path d="M256.344 0.003C114.762 0.003 0 114.792 0 256.372 0 397.901 114.762 512.684 256.344 512.684 397.925 512.684 512.686 397.901 512.686 256.372 512.686 114.792 397.926 0.003 256.344 0.003ZM410.48 296.429H102.209V216.281H410.48V296.429Z"/></svg>
